X: 13651
T: Follow Me Down
R: reel
M: 4/4
K: Adorian
|:~A3G E3G|AGAB d3B|ABAG EGG2|1 gded BAGB:|2 gded BAA2||
agef g3d|B2AG EG G2|agef g3d|B2dB BAAe|
agef g3d|BAAG EGGB|AGAB d3B|dged BAGB||

